X: 95
%
U:~=!turn!
T: Cawdor Fair
C:
O:Scotland
B:Keith Norman MacDonald : "The Skye collection of the best reels & strathspeys extant" : 1887
Z:Ralph Palmer
R:Strathspey
M:C
L:1/8
K:C
G | {AB}c>BA>G A{/B}c TE2 | {/^F}G>A{/F}G>E {/F}TG2 GA/B/ | {AB}c>B{cB}A>G A>{/B}c TE2 | DDE>G A2 Az :|
E | {/^F}G<cc>d c>d{/d}c>B | (A<d)Td>c d2 {AB}c>d | e>d{AB}c>B {/B}c>B{cB}A>G | (3ABc (3Bcd {AB}c2 c :|


